X:368
T:Father O'Grady's Visit to Bocca
T:McDermott's
R:reel
C:Josie McDermott (1925-1992)
D:Josie McDermott: Darby's Farewell
D:Altan: Horse with a Heart
Z:id:hn-reel-368
M:C|
K:D
Adde fded|ABAG EFDe|fded cAAG|EFGE D2de|
fded ~A3G|EFGE ABde|fded cAAG|EFGE D2FG:|
|:Adde fage|dfed cAAF|~G3A GE~E2|edcA GE~E2|
Adde fage|dfed cAAe|f2df gece|fage d2FG:|
